svg/u1f520.svg

<svg viewBox="0 0 128 128" xmlns="http://www.w3.org/2000/svg">
  <g>
    <path d="M116,4H12c-4.4,0-8,3.6-8,8v104c0,4.4,3.6,8,8,8h104c4.4,0,8-3.6,8-8V12C124,7.6,120.4,4,116,4z" fill="#427687"/>
    <path d="M109.7,4H11.5C7.4,4,4,7.4,4,11.5v97.9c0,4.2,3.4,7.5,7.5,7.5h98.1c4.2,0,7.5-3.4,7.5-7.5V11.5 C117.3,7.4,113.8,4,109.7,4z" fill="#8CAFBF"/>
  </g>
  <path d="M39.7,12.9c0-2.3-1.6-3-10.8-2.7c-7.7,0.3-11.5,1.2-13.8,4 s-2.9,8.5-3,15.3c0,4.8,0,9.3,2.5,9.3c3.4,0,3.4-7.9,6.2-12.3C26.2,17.8,39.7,15.9,39.7,12.9z" opacity="0.5" fill="#B4E1ED" enable-background="new "/>
  <g>
    <path d="M36.73,23.08h6.99l12.12,32.27h-6.72l-2.7-7.71H34.07l-2.7,7.71h-6.72L36.73,23.08z M44.44,42.05 l-2.84-8.11l-1.17-3.88h-0.36l-1.17,3.88l-2.88,8.11H44.44z" fill="#FFFFFF"/>
    <path d="M33.39,101.92c-2.58-1.49-4.62-3.52-6.11-6.08c-1.49-2.57-2.23-5.42-2.23-8.54s0.74-5.97,2.23-8.54 s3.52-4.6,6.11-6.09c2.58-1.49,5.44-2.23,8.56-2.23c4.87,0,8.89,1.76,12.08,5.27l-4.28,4.15c-2.07-2.43-4.66-3.65-7.75-3.65 c-2.01,0-3.85,0.46-5.5,1.37c-1.65,0.92-2.95,2.22-3.9,3.9s-1.42,3.62-1.42,5.81c0,2.19,0.47,4.13,1.42,5.81s2.25,2.98,3.9,3.9 s3.49,1.37,5.5,1.37c3.4,0,6.23-1.41,8.52-4.24l4.33,4.1c-1.59,1.92-3.48,3.39-5.66,4.39c-2.18,1.01-4.59,1.51-7.23,1.51 C38.83,104.16,35.97,103.41,33.39,101.92z" fill="#FFFFFF"/>
  </g>
  <path d="M73.76,23.08h12.62c1.8,0,3.46,0.38,4.98,1.13c1.52,0.75,2.71,1.77,3.58,3.07 c0.87,1.29,1.31,2.7,1.31,4.24c0,1.62-0.4,3.03-1.19,4.21c-0.8,1.19-1.84,2.1-3.13,2.73v0.36c1.68,0.6,3.02,1.56,4.01,2.86 c0.99,1.31,1.49,2.88,1.49,4.71c0,1.77-0.47,3.34-1.42,4.71s-2.22,2.42-3.83,3.15c-1.61,0.74-3.39,1.1-5.34,1.1H73.76V23.08z M85.93,36.24c1.32,0,2.38-0.37,3.18-1.1c0.8-0.74,1.19-1.66,1.19-2.77c0-1.08-0.38-1.99-1.15-2.73c-0.77-0.74-1.78-1.1-3.04-1.1 h-6.26v7.71h6.08V36.24z M86.61,49.81c1.47,0,2.62-0.38,3.45-1.15c0.83-0.77,1.24-1.77,1.24-3s-0.42-2.24-1.26-3.02 c-0.84-0.78-2.04-1.17-3.61-1.17h-6.58v8.34H86.61z" fill="#FFFFFF"/>
  <path d="M74.02,71.16h10.91c3.36,0,6.29,0.68,8.79,2.03c2.49,1.35,4.42,3.24,5.77,5.68 c1.35,2.43,2.03,5.24,2.03,8.43s-0.68,6-2.03,8.43s-3.28,4.33-5.77,5.68s-5.42,2.03-8.79,2.03H74.02V71.16z M84.66,97.66 c3.49,0,6.14-0.92,7.98-2.77c1.83-1.85,2.75-4.38,2.75-7.6c0-3.21-0.92-5.75-2.75-7.59c-1.83-1.85-4.49-2.77-7.98-2.77h-4.55v20.73 L84.66,97.66L84.66,97.66z" fill="#FFFFFF"/>
</svg>

<svg viewBox="0 0 128 128" xmlns="http://www.w3.org/2000/svg">
  <defs/>
  <path d="M116,4 L12,4 C7.6,4 4,7.6 4,12 L4,116 C4,120.4 7.6,124 12,124 L116,124 C120.4,124 124,120.4 124,116 L124,12 C124,7.6 120.4,4 116,4 Z" fill="#427687"/>
  <path d="M109.7,4 L11.5,4 C7.4,4 4,7.4 4,11.5 L4,109.4 C4,113.6 7.4,116.9 11.5,116.9 L109.6,116.9 C113.8,116.9 117.1,113.5 117.1,109.4 L117.1,11.5 C117.3,7.4 113.8,4 109.7,4 Z" fill="#8CAFBF"/>
  <path d="M39.7,12.9 C39.7,10.6 38.1,9.9 28.9,10.2 C21.2,10.5 17.4,11.4 15.1,14.2 C12.8,17 12.2,22.7 12.1,29.5 C12.1,34.3 12.1,38.8 14.6,38.8 C18,38.8 18,30.9 20.8,26.5 C26.2,17.8 39.7,15.9 39.7,12.9 Z" fill="#B4E1ED" opacity="0.5"/>
  <path d="M36.73,23.08 L43.72,23.08 L55.84,55.35 L49.12,55.35 L46.42,47.64 L34.07,47.64 L31.37,55.35 L24.65,55.35 L36.73,23.08 Z M44.44,42.05 L41.6,33.94 L40.43,30.06 L40.07,30.06 L38.9,33.94 L36.02,42.05 L44.44,42.05 Z" fill="#FFFFFF"/>
  <path d="M33.39,101.92 C30.81,100.43 28.77,98.4 27.28,95.84 C25.79,93.27 25.05,90.42 25.05,87.3 C25.05,84.18 25.79,81.33 27.28,78.76 C28.77,76.19 30.8,74.16 33.39,72.67 C35.97,71.18 38.83,70.44 41.95,70.44 C46.82,70.44 50.84,72.2 54.03,75.71 L49.75,79.86 C47.68,77.43 45.09,76.21 42,76.21 C39.99,76.21 38.15,76.67 36.5,77.58 C34.85,78.5 33.55,79.8 32.6,81.48 C31.65,83.16 31.18,85.1 31.18,87.29 C31.18,89.48 31.65,91.42 32.6,93.1 C33.55,94.78 34.85,96.08 36.5,97 C38.15,97.92 39.99,98.37 42,98.37 C45.4,98.37 48.23,96.96 50.52,94.13 L54.85,98.23 C53.26,100.15 51.37,101.62 49.19,102.62 C47.01,103.63 44.6,104.13 41.96,104.13 C38.83,104.16 35.97,103.41 33.39,101.92 Z" fill="#FFFFFF"/>
  <path d="M73.76,23.08 L86.38,23.08 C88.18,23.08 89.84,23.46 91.36,24.21 C92.88,24.96 94.07,25.98 94.94,27.28 C95.81,28.57 96.25,29.98 96.25,31.52 C96.25,33.14 95.85,34.55 95.06,35.73 C94.26,36.92 93.22,37.83 91.93,38.46 L91.93,38.82 C93.61,39.42 94.95,40.38 95.94,41.68 C96.93,42.99 97.43,44.56 97.43,46.39 C97.43,48.16 96.96,49.73 96.01,51.1 C95.06,52.47 93.79,53.52 92.18,54.25 C90.57,54.99 88.79,55.35 86.84,55.35 L73.76,55.35 L73.76,23.08 Z M85.93,36.24 C87.25,36.24 88.31,35.87 89.11,35.14 C89.91,34.4 90.3,33.48 90.3,32.37 C90.3,31.29 89.92,30.38 89.15,29.64 C88.38,28.9 87.37,28.54 86.11,28.54 L79.85,28.54 L79.85,36.25 L85.93,36.25 L85.93,36.24 Z M86.61,49.81 C88.08,49.81 89.23,49.43 90.06,48.66 C90.89,47.89 91.3,46.89 91.3,45.66 C91.3,44.43 90.88,43.42 90.04,42.64 C89.2,41.86 88,41.47 86.43,41.47 L79.85,41.47 L79.85,49.81 L86.61,49.81 Z" fill="#FFFFFF"/>
  <path d="M74.02,71.16 L84.93,71.16 C88.29,71.16 91.22,71.84 93.72,73.19 C96.21,74.54 98.14,76.43 99.49,78.87 C100.84,81.3 101.52,84.11 101.52,87.3 C101.52,90.49 100.84,93.3 99.49,95.73 C98.14,98.16 96.21,100.06 93.72,101.41 C91.23,102.76 88.3,103.44 84.93,103.44 L74.02,103.44 L74.02,71.16 Z M84.66,97.66 C88.15,97.66 90.8,96.74 92.64,94.89 C94.47,93.04 95.39,90.51 95.39,87.29 C95.39,84.08 94.47,81.54 92.64,79.7 C90.81,77.85 88.15,76.93 84.66,76.93 L80.11,76.93 L80.11,97.66 L84.66,97.66 L84.66,97.66 Z" fill="#FFFFFF"/>
</svg>
